X: 2006
T: Yorulmuş Ol Keman Ebru
C: Lâtif Ağa
O: Turkey
F: http://compmusic.upf.edu/node/140
N: hisarbuselik--sarki--aksak--yorulmus_ol--latif_aga
N: makam= hisarbuselik
N: form= sarki
N: usul= aksak = 9/8
M: 9/8
L: 1/16
K: C _1/4B   
Q: 1/4=144
%%MIDI tuningsystem comma53
e2^de f^gfe efed cdc=B A^G | A=B c^def ^gagf ede4z2  | 
w:  ARANAĞME  |   | 
z2^g2 f2{g}fe e2{f}e^d dedc c=B | \
w:   | 
=Bc ^def2 eddc cB{c}B6  | 
w:   | 
z2d4d2 edcd e6 | dc dfe2 d2{d}c2 =B2A2 B2G2  | \
w:   |   | 
z2c2 =B2c2 {f}e2d2 c2B2 A2 | 
w:   | 
.=B4cd cBBA A^GA6  | e2^de f^gfe efed cdc=B A^G | 
w:   |  ARANAĞME  | 
A=B c^def ^gagf ede4z2  | z2^g2 f2{g}fe e2{f}e^d dedc c=B | 
w:   |   | 
=Bc ^def2 eddc cB{c}B6  | z2d4d2 edcd e6 | \
w:   |   | 
dc dfe2 d2{d}c2 =B2A2 B2G2  | 
w:   | 
z2c2 =B2c2 {f}e2d2 c2B2 A2 | .=B4cd cBBA A^GA6  | \
w:   |   | 
^d2{f}e6 ^g2f2 e4 =ba | 
w:  Yo *  rul muş  *  ol   | 
a2 {=b}a^gg2 {a}gff2 {g}feba gfe2  | \
w:  ke *  *  *  man  *  *  *  eb *  *  *  rû    | 
^g2a=b abag gfef g4 fe | 
w:  Yo *  *  rul *  *  *  muş  *  *  *  ol   | 
ef ^ga=b2 aggf fee2 c=BA2  | ^d2{f}e6 ^g2f2 e4 =ba | 
w:  ke *  *  *  man  *  *  eb *  *  *  rû   SAZ  |  Yo *  rul muş  *  ol   | 
a2 {=b}a^gg2 {a}gff2 {g}feba gfe2  | \
w:  ke *  *  *  man  *  *  *  eb *  *  *  rû    | 
^g2a=b abag gfef g4 fe | 
w:  Yo *  *  rul *  *  *  muş  *  *  *  ol   | 
ef ^ga=b2 aggf fee4^df  | e4 ^g2f2 fee^d gfed c2 | 
w:  ke *  *  *  man  *  *  eb *  *  *  rû   SAZ  |  *  He nüz  dal *  *  *  mış   | 
^gf feef edd2 cde2 f2a2  | ag{a}gf feed dcc=B BcBA G2 | 
w:  u *  *  *  yur  *  *  *  uy *  *  ku    |  He *  *  *  *  nüz  *  *  *  dal *  *  *  mış   | 
A2 A=Bc3/2d/ cBBA A^GA4z2  | ^g2{=b}a4e2 c'bag a4 d'c' | 
w:  u *  *  yur  *  *  *  uy *  *  *  ku    |  Pe *  rî *  şan  *  *  *  ol   | 
c'3=bb3aa3^gba {b}gfe2  | ^g2a=b abag g3/2f/ef g4 fe | 
w:  si *  yah  *  giy *  su    |  Pe rî *  *  *  *  *  şan  *  *  *  ol   | 
ef ^ga=b2 aggf fee4^df  | e4 ^g2f2 fee^d gfed c2 | 
w:  si *  *  *  yah  *  *  giy *  *  *  su   SAZ  |  *  He nüz  dal *  *  *  mış   | 
^gf feef edd2 cde2 f2a2  | ag{a}gf feed dcc=B BcBA G2 | 
w:  u *  *  *  yur  *  *  *  uy *  *  ku    |  He *  *  *  *  nüz  *  *  *  dal *  *  *  mış   | 
A2 A=Bc3/2d/ cBBA A^GA4z2  | |


